packages/foundations/assets/icons/functional/images/social/heart_12_filled.svg

<svg width="12" height="12" viewBox="0 0 12 12" fill="none" xmlns="http://www.w3.org/2000/svg">
<g clip-path="url(#clip0_2214_6234)">
<path fill-rule="evenodd" clip-rule="evenodd" d="M5.3142 9.76168L1.98363 6.52904C1.44678 6.00799 1.19995 5.31428 1.19995 4.62859C1.19995 3.15922 2.39503 1.94446 3.86446 1.94446C4.55015 1.94446 5.24555 2.2089 5.76485 2.72814L5.99995 2.96324L6.17625 2.8065C6.74589 2.30025 7.41057 1.96408 8.13544 1.96408C9.58531 1.96408 10.8 3.06004 10.8 4.49148C10.8 5.25553 10.5832 5.97884 10.0163 6.52904L6.6857 9.76168C6.50671 9.93535 6.25462 10.0556 5.99995 10.0556C5.74529 10.0556 5.49319 9.93535 5.3142 9.76168Z" fill="#1A1C1F"/>
</g>
<defs>
<clipPath id="clip0_2214_6234">
<rect width="12" height="12" fill="white"/>
</clipPath>
</defs>
</svg>

<svg xmlns="http://www.w3.org/2000/svg" width="12" height="12" fill="none"><g clip-path="url(#a)"><path fill="#1A1C1F" fill-rule="evenodd" d="m5.314 9.762-3.33-3.233a2.62 2.62 0 0 1-.784-1.9c0-1.47 1.195-2.685 2.664-2.685.686 0 1.382.265 1.9.784L6 2.963l.176-.156c.57-.507 1.235-.843 1.96-.843 1.45 0 2.664 1.096 2.664 2.527 0 .765-.217 1.488-.784 2.038l-3.33 3.233a1.01 1.01 0 0 1-.686.294c-.255 0-.507-.12-.686-.294" clip-rule="evenodd"/></g><defs><clipPath id="a"><path fill="#fff" d="M0 0h12v12H0z"/></clipPath></defs></svg>
